X:1098
T:Glädjens blomster

R:Visa
Z:Klas Krantz, 2006

L:1/8
M:3/4
K:Gm
"Gm"G>AB2G>B | "D7"A>^FD2F>G | "Cm"A>B"Gm"G4 :|
"Gm"B>cd2B>d | d>d"D7"A2d2- | d2"Cm"cB "C#dim"A>G | "D"G2^F4 |
|:"Gm"GA BA "Cm"cB | AG "C#dim"BA G^F | "D7"^F2"Gm"G4 :|]
(:musicend:)

Denna låt har lite [[!lite information]] - varifrån kommer den och vem är den efter? Troligen finns den i [[kategori/Svenska Låtar]]. Den har ingått i de svenska stamsångerna - de sånger alla svenska skolbarn skulle lära sig, för att genom livet kunna sjunga tillsammans (huvudsaklingen nationalistiska sånger och sånger om natur och frisk, svensk ungdom).
(:music:)
